X: 43348
T: Wreck Of The Manuka
R: jig
M: 6/8
K: Dmajor
A|:"D" dAF Ade|f>ff fed|"A" ecA ABc|1 "D" dAF DFA:|2 "D" d>dd def||
|:"G" gdB GBc|"D" dAF DCB,|"A7" A,CE GFE|1 "D" DFA def:|2 "D" D3 z2||

